lib/preview/nrk-logo-preview-nrk-mp3.svg

<svg width="68" height="14" viewBox="0 0 68 14" fill="none" xmlns="http://www.w3.org/2000/svg">
<path d="M6.10352e-05 12.9949V0.995963H3.93725V12.9949H6.10352e-05ZM9.29387 2.90565L11.5581 12.9949H7.24923L4.54555 0.995963H6.96224C7.51641 0.988771 8.05412 1.18412 8.47456 1.54526C8.89568 1.89125 9.18501 2.37157 9.29387 2.90565ZM12.1496 12.9949V0.995963H16.0868V12.9949H12.1496ZM19.0605 5.55897C18.6363 5.56311 18.2188 5.4521 17.8526 5.23784C17.4913 5.02899 17.1912 4.72883 16.9823 4.36747C16.7678 4.0012 16.6568 3.58363 16.661 3.15919C16.6562 2.73733 16.7673 2.32225 16.9823 1.9593C17.1934 1.60186 17.4932 1.30497 17.8526 1.09739C18.2189 0.883375 18.6363 0.772388 19.0605 0.776257C19.4823 0.771715 19.8972 0.882802 20.2603 1.09739C20.6161 1.30679 20.9127 1.60343 21.1221 1.9593C21.3369 2.32235 21.448 2.73737 21.4434 3.15919C21.4473 3.5836 21.3363 4.0011 21.1221 4.36747C20.9149 4.72725 20.618 5.02715 20.2603 5.23784C19.8972 5.45285 19.4819 5.56396 19.06 5.55897H19.0605ZM22.0517 12.9949V0.995963H25.9892V12.9949H22.0517ZM30.9738 7.55311C30.9849 7.56475 31.0693 7.70276 31.2272 7.96714C31.3851 8.23153 31.5907 8.56956 31.844 8.98116C32.0975 9.39258 32.3649 9.82913 32.6464 10.2909C32.9278 10.7526 33.1927 11.1892 33.4409 11.6007C33.6882 12.0121 33.9698 12.4768 34.2858 12.9949H29.9599C29.6893 12.5555 29.4442 12.1583 29.2245 11.8034C29.0049 11.4485 28.7714 11.0655 28.5239 10.6542C28.2759 10.2434 28.0307 9.84341 27.7883 9.45434C27.5459 9.06527 27.3376 8.72449 27.1633 8.43193C26.9883 8.13919 26.8671 7.942 26.7997 7.84041C26.6326 7.58832 26.5337 7.29717 26.5127 6.99542C26.5295 6.70581 26.6227 6.42585 26.7828 6.18398C26.8504 6.07132 26.9743 5.8713 27.1546 5.584C27.3348 5.29671 27.5461 4.95593 27.7883 4.5616C28.0305 4.16727 28.2757 3.76448 28.5239 3.35325C28.7721 2.94202 29.0056 2.55611 29.2245 2.19558C29.4446 1.83542 29.6897 1.43546 29.9599 0.995688H34.2858L30.9397 6.45437C30.8361 6.61644 30.7778 6.80322 30.7707 6.99542C30.7818 7.1972 30.8523 7.39119 30.9732 7.55311H30.9738Z" fill="white"/>
<path d="M55.2769 0.994873H51.5692C51.5692 0.994873 53.675 4.4465 53.6988 4.49092C53.7785 4.59097 53.823 4.71444 53.8255 4.84227C53.828 4.9701 53.7882 5.09519 53.7124 5.19822L51.5692 8.70557H55.2758C55.2758 8.70557 57.063 5.7864 57.3075 5.38126C57.4237 5.22588 57.4857 5.03671 57.4839 4.84276C57.4821 4.64881 57.4166 4.4608 57.2975 4.30758C57.0364 3.86057 57.0349 3.86086 55.2769 0.994873Z" fill="white"/>
<path d="M66.8847 2.98183C66.76 2.76992 65.6569 0.994873 65.6569 0.994873H57.7253L59.4581 3.89792H63.6361L61.9115 6.72061L63.8346 9.94591L61.9806 12.9898H65.3672C65.9116 12.1001 66.7269 10.7242 66.8968 10.4436C67.0135 10.2877 67.0757 10.0979 67.0739 9.90336C67.0721 9.70879 67.0064 9.52016 66.8869 9.36648C66.717 9.07762 65.8105 7.64067 65.2686 6.75654C65.2686 6.75654 66.7269 4.34324 66.8968 4.06117C67.0138 3.9049 67.076 3.71452 67.0738 3.51943C67.0716 3.32435 67.0051 3.13542 66.8847 2.98183Z" fill="white"/>
<path d="M59.2536 7.11493C58.7315 7.96652 57.8584 9.39386 57.6956 9.67197C57.5805 9.81999 57.5173 10.0016 57.5156 10.189C57.514 10.3764 57.5739 10.5591 57.6862 10.7092C57.8499 10.9808 58.7298 12.4191 59.2544 13.2761C59.7788 12.4191 60.6589 10.9808 60.8223 10.7092C60.9347 10.5591 60.9947 10.3763 60.993 10.189C60.9913 10.0016 60.9281 9.81997 60.813 9.67197C60.6487 9.39386 59.7754 7.96652 59.2536 7.11493Z" fill="white"/>
<path d="M48.7126 0.994873C48.3273 0.997461 47.951 1.11198 47.6297 1.32447C47.3572 1.49196 45.1343 3.37649 44.9649 3.51993C44.7949 3.37649 42.5726 1.49196 42.3001 1.32447C41.9788 1.11198 41.6025 0.997461 41.2172 0.994873H38.8572V11.5631L42.1375 9.10167V4.85787L44.9649 6.98317L47.7923 4.85787V12.9881H51.0918V0.994873H48.7126Z" fill="white"/>
</svg>

<svg xmlns="http://www.w3.org/2000/svg" viewBox="0 0 68 14"><path fill="#fff" d="M0 12.995V.996h3.937v11.999H0Zm9.294-10.09 2.264 10.09H7.25L4.546.996h2.416a2.276 2.276 0 0 1 1.513.55c.42.345.71.826.819 1.36Zm2.856 10.09V.996h3.937v11.999H12.15Zm6.91-7.436a2.383 2.383 0 0 1-2.4-2.4 2.303 2.303 0 0 1 .322-1.2 2.412 2.412 0 0 1 3.278-.862c.356.21.653.506.862.862.215.363.326.778.321 1.2a2.4 2.4 0 0 1-1.183 2.079 2.303 2.303 0 0 1-1.2.321Zm2.992 7.436V.996h3.937v11.999h-3.937Zm8.922-5.442a9.3 9.3 0 0 1 .253.414c.158.265.364.603.617 1.014a323.751 323.751 0 0 1 1.597 2.62c.247.411.529.876.845 1.394H29.96c-.27-.44-.516-.837-.736-1.192-.22-.355-.453-.738-.7-1.149-.248-.41-.493-.81-.736-1.2-.242-.389-.45-.73-.625-1.022-.175-.293-.296-.49-.363-.592a1.75 1.75 0 0 1-.287-.845c.016-.29.11-.57.27-.811.067-.113.191-.313.372-.6a182.106 182.106 0 0 0 1.37-2.23c.247-.412.48-.798.7-1.158l.735-1.2h4.326L30.94 6.454a1.078 1.078 0 0 0-.17.541c.012.202.082.396.203.558ZM55.277.995h-3.708s2.106 3.452 2.13 3.496a.582.582 0 0 1 .013.707L51.57 8.706h3.707s1.787-2.92 2.031-3.325a.885.885 0 0 0-.01-1.073c-.26-.447-.262-.447-2.02-3.313ZM66.885 2.982C66.76 2.77 65.657.995 65.657.995h-7.932l1.733 2.903h4.178L61.911 6.72l1.924 3.225-1.854 3.044h3.386c.545-.89 1.36-2.266 1.53-2.546a.888.888 0 0 0-.01-1.078c-.17-.288-1.076-1.725-1.618-2.61l1.628-2.695a.887.887 0 0 0-.012-1.08Z"/><path fill="#fff" d="M59.254 7.115c-.523.852-1.396 2.279-1.558 2.557a.855.855 0 0 0-.01 1.037c.164.272 1.044 1.71 1.568 2.567.525-.857 1.405-2.295 1.568-2.567a.855.855 0 0 0-.009-1.037 438.075 438.075 0 0 0-1.56-2.557ZM48.713.995a1.987 1.987 0 0 0-1.083.33c-.273.167-2.496 2.051-2.665 2.195-.17-.144-2.392-2.028-2.665-2.196a1.987 1.987 0 0 0-1.083-.33h-2.36v10.57l3.28-2.462V4.858l2.828 2.125 2.827-2.125v8.13h3.3V.995h-2.38Z"/></svg>
